assets/icons/bowtie/uE6E7-sort.svg

<svg xmlns="http://www.w3.org/2000/svg" viewBox="0 0 448 448"><path d="M202.36 135.75l-74.36-74.502v386.752h-32v-386.752l-73.71 74.502-22.29-22.625 112.558-113.125 112.39 113.125-22.587 22.625zm223.335 176.5l-73.695 74.5v-386.75h-32v386.752l-74.36-74.502-22.634 22.625 112.414 113.125 112.58-113.125-22.305-22.625z"/></svg>

<svg xmlns="http://www.w3.org/2000/svg" viewBox="0 0 448 448"><path d="M202.36 135.75L128 61.248V448H96V61.248L22.29 135.75 0 113.125 112.558 0l112.39 113.125-22.587 22.625zm223.335 176.5L352 386.75V0h-32v386.752l-74.36-74.502-22.634 22.625L335.42 448 448 334.875l-22.305-22.625z"/></svg>
